X:552
T: SCHLAF SCHWESTER SANFT
N: F1075
O: Europa, Mitteleuropa, Deutschland
R: Trauer -, Bregraebnis -, Trost - Lied
M: 3/8
L: 1/16
K: C
_B_A | G4G_A | _B2_A2G2 | F2G2_A2 | _A2G2
_E2 | c4_ec | _B2_AGF_E | D2_A2G2 | G2F2
F_B | _B4=B2 | B2c2d2 | d2_e2fe | ^c2d2
_B2 | _B2c2_d2 | c2d2_e2 | _E2_A2D2 | _E4
G2 | c4_B2 | _A4=A2 | _B4_A2 | G4
_B2 | _B2G2_d2 | d2c2_B2 | _B2c2G2 | _A4
A2 | F4F2 | G2c2G2 | F4F2 | G2d2
F2 | G2c2_B2 | _A2G2F2 | _E2F2D2 | C2z2

@@@ Tune index: 5983
